Obsidian-SemiLight/actions/22s/zoom-fit-height.svg

<svg viewBox="0 0 22 22" xmlns="http://www.w3.org/2000/svg"><path d="m11 3-2 2h4zm-5 3v10h10v-10zm1 1h8v8h-8zm2 10 2 2 2-2z" fill="#4d4d4d"/></svg>

<svg xmlns="http://www.w3.org/2000/svg" viewBox="0 0 22 22">
  <defs id="defs3051">
    <style type="text/css" id="current-color-scheme">
      .ColorScheme-Text {
        color:#4d4d4d;
      }
      </style>
  </defs>
 <path 
    style="fill:currentColor;fill-opacity:1;stroke:none" 
	d="M 11 3 L 9 5 L 13 5 L 11 3 z M 6 6 L 6 16 L 16 16 L 16 6 L 6 6 z M 7 7 L 15 7 L 15 15 L 7 15 L 7 7 z M 9 17 L 11 19 L 13 17 L 9 17 z "
	class="ColorScheme-Text"
    />  
</svg>
